X:1
T:Title
%%score { ( 1 4 5 ) | ( 2 3 ) }
L:1/8
Q:1/4=100
M:4/4
K:D
V:1 treble nm="Grand Piano"
V:4 treble 
V:5 treble 
V:2 bass 
V:3 bass 
V:1
 F2 F>[EG] [FA]>[Bd] [Ac]>[GB] | [FA]4 F2 F2 | [CE]2 [CE]>F [A,EG]2 [A,FA]2 | [A,DF]6 [A,DF]2 | %4
w: J.~H.~Hall * * * * * *||||
 [A,DF]3 [A,EG] [A,FA]>[DBd] [DAc]>[DGB] | [DFA]4 [DF]2 [DFA]2 | A4 z4 | [Fd]6 z2 | [FA]6 z2 | %9
w: |||||
 c6 z2 | [EG]6 z2 | (3[FA-][FA-][FA-] A4 (3FGA | B4 z4 | (3[FA-][FA-][FA-] A2 [Fd]2 (3Bcd | %14
w: |||||
 e>d c>B (3AAA [DGB]>[Gc] | d2- [Gd-]>[Gd-] [Fd]2 z2 |] %16
w: ||
V:2
 [D,A,D]2 [D,A,D]>[D,A,] [D,D]>[D,D] [D,D]>[D,D] | D4 [A,D]2 [D,A,D]2 | %2
 [A,,A,]2 z z/ D/ A,,2 A,,2 | D,6 D,2 | D,3 D, D,>D, D,>D, | z4 A,2 D,2 | %6
 D,E,F,[K:treble][G,DG] [A,DF]2[K:bass] [A,,A,]2 | [D,A,]6 z2 | [D,D]2 D,>D, z D D,>[D,A,] | %9
 (3[A,E]A,[A,B,] [A,C]>[A,B,] A,2[K:treble] (3cBA | A,,2 A,,>A,, z C A,,>A,, | %11
 (3[D,D][D,D][D,D] [D,D]>[D,D] [D,D]2 z2 | G6 z2 | (3[D,D][D,D][D,D] [D,D]>[D,D] [D,A,]2 z2 | %14
 [G,B,G]2 [G,B,G]>[G,CG] (3[A,DF][A,DF][A,DF][K:bass] A,,>[A,,A,] | A,4 z4 |] %16
V:3
 x8 | D,6 z2 | z2 [A,,A,]2 z4 | x8 | x8 | D,6 z2 | x3[K:treble] x3[K:bass] x2 | x8 | z4 D,2 z2 | %9
 x6[K:treble] x2 | z4 A,,2 z2 | x8 | [G,D]2 G,>G, [G,B,]2 [G,B,G]>[G,DG] | x8 | x6[K:bass] x2 | %15
 D,2- [D,-B,]>[D,-B,] [D,A,]2 z2 |] %16
V:4
 x8 | x8 | x8 | x8 | x8 | x8 | [DF][CE]DB A2 [Ec]2 | x8 | z2 D>D DF [DFA]>[Fd] | z2 G>G G2 z2 | %10
 A,2 A,>A, z E [B,EG]>[CGB] | z2 F>F F2 z2 | z2 D>D dc d>B | z2 F>F z4 | x8 | F4 z4 |] %16
V:5
 x8 | x8 | x8 | x8 | x8 | x8 | x8 | x8 | x8 | (3z EE z2 z4 | z4 A,2 z2 | x8 | x8 | x8 | x8 | x8 |] %16

